X: 20282
T: Joey Beaton's
R: reel
M: 4/4
K: Bminor
a|:fBBA Bcde|fddc dfaf|eAA/A/A aAA/A/A|(3fga ea cAAa|
fBBA Bcde|fddc dfaf|eAA/A/A aAA/A/A|1 faec BBBa:|2 faec BBBc|
|:B/B/BdB B/B/BdB|cAA/A/A cAec|B/B/BdB B/B/BdB|caec BBBc|
B/B/BdB B/B/BdB|cAA/A/A cAec|defd fada|1 cAac BBBc:|2 cAac BBBa||

